X:1
T:Never Alone (Werdebaugh)
T:Never Alone (Werdebaugh)
T:Scott Werdebaugh, 2018
T:Addison B. Bowser (Adapted by Scott Werdebaugh)
T:Copyright © 2018 by Scott Werdebaugh and New Heart Music - May be freely copied and used for Christian worship or devotions with no alterations. All other rights reserved.
T:Copyright © 2018 by Scott Werdebaugh and New Heart Music - May be freely copied and used for Christian worship or devotions with no alterations. All other rights reserved.
C:Scott Werdebaugh, 2018
Z:Copyright © 2018 by Scott Werdebaugh and New Heart Music - May be freely copied and used for
Z:Christian worship or devotions with no alterations. All other rights reserved.
%%score 1 2
L:1/8
Q:1/4=168
M:3/2
K:Eb
V:1 treble 
V:2 bass 
V:1
"^Confidently" (3[GB]2 [FA]2 [EG]2 [GB]4 [EG]4 | (3[GB]2 [FA]2 [EG]2 [DF]6 z2 | %2
w: 1.~Nev- er a- lone, no,|nev- er a- lone,|
w: 2.~Nev- er a- lone, when|dan- ger is near,|
w: 3.~Nev- er a- lone, when|tempt- ed and tried,|
w: 4.~Nev- er a- lone, when|death sha- dows come,|
 (3[FA]2 [FA]2 [FA]2 [FA]4 [DF]4 | (3[Ac]2 [GB]2 [FA]2 [EG]6 z2 | (3[GB]2 [GB]2 [GB]2 [GB]4 [EG]4 | %5
w: Je- sus is with me,|Je- sus my own;|Cheered by His pres- ence,|
w: Walk- ing with Je- sus,|why should I fear?|Trust- ing in Him when|
w: Safe- ly He keeps me|close to His side;|Lean- ing on Je- sus,|
w: O’er wear- y eye- lids|clos- ing in sleep;|Sweet- ly with Je- sus,|
 (3[EG]2 [FA]2 [GB]2 [Ac]6 z2 | (3[ce]2 [Bd]2 [Ac]2 [GB]4 [EG]4 | (3[B,E]2 [EG]2 [DF]2 [B,E]6 z2 || %8
w: led by His hand,|Joy- ous I march thro’|this des- ert land.|
w: pressed by the foe,|I find a ref- uge|from all my woe.|
w: Sav- ior di- vine,|Claim- ing His prom- ise,|vic- t’ry is mine.|
w: when night is o’er,|I shall a- wake on|yon- der bright shore.|
"^Refrain" (3[Ac]2 [Ac]2 [Ac]2 [GB]4 [EG]4 | (3[DF]2 [CE]2 [DF]2 [EG]6 z2 | %10
w: Nev- er a- lone, no,|nev- er a- lone,|
w: Nev- er a- lone, no,|nev- er a- lone,|
w: Nev- er a- lone, no,|nev- er a- lone,|
w: Nev- er a- lone, no,|nev- er a- lone,|
 (3[Ac]2 [Bd]2 [Ac]2 [GB]4 [EG]4 | (3[EG]2 [FA]2 [EG]2 [DF]6 z2 | %12
w: Je- sus is with me,|Je- sus my own,|
w: Je- sus is with me,|Je- sus my own,|
w: Je- sus is with me,|Je- sus my own,|
w: Je- sus is with me,|Je- sus my own,|
 (3[GB]2 [Ac]2 [GB]2 [EG]4 [B,E]4 | (3[DF]2 [CE]2 [DF]2 [EG]6 z2 | %14
w: O what a com- fort|dai- ly I know,|
w: O what a com- fort|dai- ly I know,|
w: O what a com- fort|dai- ly I know,|
w: O what a com- fort|dai- ly I know,|
 (3[Ac]2 [Bd]2 [Ac]2 [GB]4 [EG]4 | (3[B,E]2 [EG]2 [DF]2 [B,E]6 z2"^Play 4 times" :| %16
w: Je- sus is with me|wher- e’er I go.|
w: Je- sus is with me|wher- e’er I go.|
w: Je- sus is with me|wher- e’er I go.|
w: Je- sus is with me|wher- e’er I go.|
V:2
 (3[E,G,]2 [B,D]2 [E,B,]2 [E,G,]4 [E,B,]4 | (3[E,G,]2 [B,D]2 [E,B,]2 [B,,B,]6 z2 | %2
 (3[B,D]2 [B,D]2 [B,D]2 [B,D]4 [B,,B,]4 | (3[A,,F,]2 [E,G,]2 [B,D]2 [E,B,]6 z2 | %4
 (3[E,G,]2 [E,G,]2 [E,G,]2 [E,G,]4 [E,B,]4 | (3[E,B,]2 [B,D]2 [E,G,]2 [A,E]6 z2 | %6
 (3[A,,A,]2 [B,,F,]2 [A,,E,]2 [E,G,]4 [E,B,]4 | (3[E,G,]2 [E,B,]2 [B,,B,]2 [E,G,]6 z2 || %8
 (3[A,,E,]2 [A,,E,]2 [A,,E,]2 [E,G,]4 [E,B,]4 | (3[B,,B,]2 [A,,A,]2 [B,,B,]2 [E,B,]6 z2 | %10
 (3[A,,E,]2 [B,,F,]2 [A,,E,]2 [E,G,]4 [E,B,]4 | (3[E,B,]2 [B,D]2 [E,B,]2 [B,,B,]6 z2 | %12
 (3[E,G,]2 [A,,E,]2 [E,G,]2 [E,B,]4 [E,G,]4 | (3[B,,B,]2 [A,,A,]2 [B,,B,]2 [E,B,]6 z2 | %14
 (3[A,,E,]2 [B,,F,]2 [A,,E,]2 [E,G,]4 [E,B,]4 | %15
 (3[E,G,]2 [E,B,]2 [B,,B,]2 [E,G,]6 z2"^Play 4 times" :| %16

